src/svg/ue93a-tree-close.svg

<!-- Generated by IcoMoon.io -->
<svg version="1.1" xmlns="http://www.w3.org/2000/svg" width="32" height="32" viewBox="0 0 32 32">
<path d="M26 14.366h-8.366v-8.366h-3.269v8.366h-8.366v3.269h8.366v8.366h3.269v-8.366h8.366z"></path>
<path d="M0 0v32h32v-32h-32zM28 4v24h-24v-24h24z"></path>
</svg>

<svg xmlns="http://www.w3.org/2000/svg" width="32" height="32"><path d="M26 14.366h-8.366V6h-3.269v8.366H5.999v3.269h8.366v8.366h3.269v-8.366H26z"/><path d="M0 0v32h32V0H0zm28 4v24H4V4h24z"/></svg>
